X:264
T:Queen Victoria’s Waltz TS.264
M:3/8
L:1/8
Q:1/4=60
S:Thomas Sands’ MS,1810,Lincolnshire
R:waltz
O:England;Lincolnshire
C:In different hand C
Z:vmp.Ruairidh Greig, 2011
K:D
(3D/D/D/|D2(3D/D/D/|D2(3D/D/D/|DFA|d2(3f/f/f/|f2(3f/f/f/|f2g|f2^e|f2:|
|:A|A>GF/G/|(A<d)z|(B<e)z|d<fz|A>GF/G/| A<dz|c>dg/c/|[d2F2]:|
|:f/>f/|f3f/>f/|ff/g/f/e/|dd/e/d/c/|B2e/e/|e2e/e/|ee/f/e/d/|cc/d/c/B/|A2A|
A>GF/G/|A<dz|B<ez|d<fz|A>GF/G/|A<dz|g>ec/e/|[d2F2]:|]

